!!!!SEGMENT: pl-kk--kk-i-382--092_studzinski-piotr--andantino-no-33.krn
!!!cenid: 18xx:1596
!!!COM: Studziński, Piotr
!!!COM-rismID: pe50044409
!!!CDT: 1825/10/16-1869/04/20
!!!CNT: Polish
!!!OTL: Andantino No 33
!!!PDT:
!!!AGN:
!!!SMS-siglum: PL-Kk
!!!SMS-shelfmark: Kk.I.382
!!!SMS-shelfwork: 092 W
!!!SMS-variant:
!!!SMS-altvar:
!!!NIFC-rismSourceID: 1001139027
!!!NIFC-rismChildID: 1001142960
!!!NIFC-islandoraID: pl-kk:6162
!!!URL-pdf-islandora: https://repozytorium.nifc.pl/islandora/object/pl-kk%3A6162/datastream/PDF/view
!!!URL-scan: https://polish.musicsources.pl/pl/lokalizacje/galeria/rekopisy/5994 @EN{Scan on Polish Music Sources Website} @PL{Skany w portalu Dziedzictwo Muzyki Polskiej w otwartym dostępie}
!!!IIIF:
!!!ONB-nifc: Ave Maris stella. S/T1 0054, T2 0127, A/B1 0200, B2 0262
!!!AIN: 1 alto 1 empty 2 tenor
!!!key:
**kern	**text	**dynam	**kern	**text	**dynam	**kern	**text	**dynam	**kern	**text	**dynam
*part4	*part4	*part4	*part3	*part3	*part3	*part2	*part2	*part2	*part1	*part1	*part1
*staff4	*staff4	*	*staff3	*staff3	*	*staff2	*staff2	*	*staff1	*staff1	*
*Iempty	*	*	*Ialto	*	*	*Itenor	*	*	*Itenor	*	*
*I"Bas IIgi	*	*	*I"[Alto vel Basso I]	*	*	*I"[Tenore II]	*	*	*I"[Soprano vel Tenore I.]	*	*
*I'B. II	*	*	*I'A. vel B. I	*	*	*I'T. II	*	*	*I'S. vel T. I	*	*
*clefF4	*	*	*clefF4	*	*	*clefG2	*	*	*clefG2	*	*
*	*	*	*	*	*	*ITrd7c12	*	*	*	*	*
*k[]	*	*	*k[]	*	*	*k[]	*	*	*k[]	*	*
*C:	*	*	*C:	*	*	*C:	*	*	*C:	*	*
*M4/4	*	*	*M4/4	*	*	*M4/4	*	*	*M4/4	*	*
*met(c)	*	*	*met(c)	*	*	*met(c)	*	*	*met(c)	*	*
=1	=1	=1	=1	=1	=1	=1	=1	=1	=1	=1	=1
!!LO:TX:t=P:problem:4\right or center:global
!!LO:TX:t=P:problem:8\right or center:global
!!LO:TX:t=P:problem:8\right or center:global
!LO:TX:a:i:t=przez Piotra Studzińskiego	!	!	!LO:TX:a:i:t=przez Piotra Studzińskiego.	!	!	!LO:TX:a:i:t=przez Piotra Studzińskiego	!	!	!LO:TX:a:i:t=Ave Maris Stella. przez Piotra Studzińskiego	!	!
!LO:TX:b:i:t=Andantino	!	!	!LO:TX:t=P:problem=zapis na zdjęciu 200	!	!	!LO:TX:t=P:problem=zapis na zdjęciu 127	!	!	!LO:TX:t=P:problem=zapis na zdjęciu 054	!	!
!LO:TX:b:t=No 33.	!	!	!LO:TX:b:t=No 33.	!	!	!LO:TX:b:i:t=Andantine	!	!	!LO:TX:b:i:t=Andantine	!	!
!LO:TX:t=P:problem=zapis na zdjęciu 262, czyli w zupełnie innym miejscu niż w pozostałych głosach, powinien być około zdj 274	!	!LO:DY:a	!LO:TX:b:i:t=Andantino	!	!LO:DY:a	!LO:TX:b:t=No 33.	!	!LO:DY:a	!LO:TX:b:t=No 33.	!	!LO:DY:a
!	!	!LO:DY:a	!	!	!	!LO:TX:t=P:problem=korekta 32 na 33	!	!	!	!	!
4.C/	A-	.	4.G\	A-	<	4.c\	A-	<	4.ee\	A-	<
.	.	<	.	.	.	.	.	.	.	.	.
8C/	-ve	.	8G\	-ve	.	8c\	-ve	.	8ee\	-ve	.
4C/	Ma-	.	4G\	Ma-	[	4c\	Ma-	.	4ee\	Ma-	[
4C/	-ris	[	4G\	-ris	.	4c\	-ris	[	4ee\	-ris	.
=2	=2	=2	=2	=2	=2	=2	=2	=2	=2	=2	=2
*	*	*	*2\right	*	*	*	*	*	*	*	*
!	!	!LO:DY:a	!	!	!LO:DY:a	!	!	!	!LO:TX:t=P:problem=diminuendolike accent	!	!
(4D/	stel-	>	2G\	stel-	>	(4.B\	stel-	.	(4.gg\	stel-	.
4GG/)	.	]	.	.	.	.	.	.	.	.	.
!	!	!	!	!	!	!	!	!LO:DY:a	!	!	!
.	.	.	.	.	.	8d\	-la	>	8ff\	.	.
4C/	-la	.	4G\	-la	]	4c\)	.	.	4ee\)	-la	.
4r	.	.	4r	.	.	4r	.	]	4r	.	.
!LO:LB:g=original	!	!	!LO:LB:g=original	!	!	!LO:LB:g=original	!	!	!LO:LB:g=original	!	!
=3	=3	=3	=3	=3	=3	=3	=3	=3	=3	=3	=3
!	!	!LO:DY:a	!	!	!LO:DY:a	!	!	!LO:DY:a	!	!	!LO:DY:a
4.D\	De-	<	4.F#X\	De-	<	4.A/	De-	<	4.cc\	De-	<
8D\	-i	.	8F#\	-i	.	8A/	-i	.	8cc\	-i	.
4D\	Ma-	[	4F#\	Ma-	.	(16B/LL	Ma-	.	(16dd\LL	Ma-	.
.	.	.	.	.	.	16A/	.	.	16cc\	.	[
.	.	.	.	.	.	16G#X/	.	.	16b\	.	.
.	.	.	.	.	.	16A/JJ)	.	.	16cc\JJ	.	.
4D\	-ter	.	4F#\	-ter	[	(8.c\L	.	[	8.ee\L	.	.
.	.	.	.	.	.	16B\Jk)	-ter	.	16dd\Jk)	-ter	.
=4	=4	=4	=4	=4	=4	=4	=4	=4	=4	=4	=4
*	*	*	*	*	*	*	*	*	*2\right	*	*
!	!	!LO:DY:a	!	!	!LO:DY:a	!	!	!LO:DY:a	!LO:TX:t=P:problem=diminuendolike accent	!	!
2GG/	al-	>	(4F#X\	al-	>	2A/	al-	>	(2cc\	al-	.
.	.	.	4D\)	.	.	.	.	.	.	.	.
4GG/	-ma	]	4G\	-ma,	]	4G/	-ma,	]	4b\)	-ma	.
4r	.	.	4r	.	.	4r	.	.	4r	.	.
=5	=5	=5	=5	=5	=5	=5	=5	=5	=5	=5	=5
!LO:TX:t=P:problem=ołówkowe przeróbki nut	!	!LO:DY:a	!	!	!LO:DY:a	!LO:TX:t=P:problem=diminuendolike accent	!	!	!LO:TX:t=P:problem=diminuendolike accent	!	!
2D/	ad que	>	4A\	ad	>	4.d\	ad	.	4.ff\	ad	.
.	.	.	4A-X\	que	]	.	.	.	.	.	.
.	.	.	.	.	.	8d\	que	.	8ff\	que	.
4BB/	sem-	]	4G\	sem-	.	(16e\LL	sem-	.	(16gg\LL	sem-	.
.	.	.	.	.	.	16d\	.	.	16ff\	.	.
.	.	.	.	.	.	16c#X\	.	.	16ee\	.	.
.	.	.	.	.	.	16d\JJ	.	.	16ff\JJ	.	.
4BB/	-per	.	4G\	-per	.	8f\L	.	.	8aa\L)	-per	.
.	.	.	.	.	.	8e\J)	-per	.	8gg\J	.	.
!	!	!	!	!	!	!	!	!	!LO:LB:g=original	!	!
=6	=6	=6	=6	=6	=6	=6	=6	=6	=6	=6	=6
*	*	*	*	*	*	*2\right	*	*	*	*	*
!	!	!LO:DY:a	!	!	!LO:DY:a	!	!	!LO:DY:a	!	!	!LO:DY:a
2C/	Vir-	<	2G\	vir-	<	2c\	vir-	<	2ee\	Vir-	<
2C#X/	-go	[	2G\	-go	[	2B-X\	-go	[	2ee\	-go	[
!LO:LB:g=original	!	!	!LO:LB:g=original	!	!	!LO:LB:g=original	!	!	!	!	!
=7	=7	=7	=7	=7	=7	=7	=7	=7	=7	=7	=7
4.D/	foe-	.	4.G\	foe-	.	4.B\	foe-	.	4.dd\	foe-	.
8D/	-lix	.	8G\	-lix	.	8B\	-lix	.	8dd\	-lix	.
!	!	!LO:DY:a	!	!	!LO:DY:a	!	!	!LO:DY:a	!	!	!LO:DY:a
4D/	coe-	>	4F#X\	coe-	>	4A/	coe-	>	4dd\	coe-	.
.	.	.	.	.	.	.	.	.	.	.	>
4D/	-li	]]	4F#\	-li	]]	4A/	-li	.	4dd\	-li	.
=8	=8	=8	=8	=8	=8	=8	=8	=8	=8	=8	=8
!	!	!	!LO:TX:t=P:problem=ołówkowe przeróbki tekstu	!	!	!	!	!	!	!	!
4GG/	coe-	.	4G\	por-	.	2B\	por-	.	2dd\	por-	.
4G\	-li	.	4G\	-ta	.	.	.	.	.	.	.
4G\	por-	.	4G\	coe-	.	4B\	-ta,	]	4dd\	-ta.	]
!	!	!	!	!	!LO:DY:a	!	!	!	!	!	!
4G\	-ta	.	4G\	-li	>	4r	.	.	4r	.	.
=9	=9	=9	=9	=9	=9	=9	=9	=9	=9	=9	=9
!	!	!LO:DY:a	!	!	!	!	!	!	!	!	!LO:DY:a
4.F\	sum-	>	4.G\	foe-	.	4.B\	su-	.	4.dd\	su-	>
!	!	!	!	!	!	!	!	!LO:DY:a	!	!	!
8F\	-ens	]	8G\	-lix	]	8B\	-mens	<	8dd\	-mens	]
4F\	il-	.	4G\	coe-	.	4B\	il-	.	(8cc#X\L	il-	.
.	.	.	.	.	.	.	.	.	8dd\J)	.	.
4F\	-lud	.	4G\	-li	.	4B\	-lud	[	(8ee\L	-lud	.
.	.	.	.	.	.	.	.	.	8ff\J)	.	.
!LO:LB:g=original	!	!	!	!	!	!	!	!	!LO:LB:g=original	!	!
=10	=10	=10	=10	=10	=10	=10	=10	=10	=10	=10	=10
*2\right	*	*	*	*	*	*	*	*	*	*	*
!	!	!LO:DY:a	!	!	!	!LO:TX:t=P:problem=diminuendolike accent	!	!	!LO:TX:t=P:problem=diminuendolike accent	!	!
2E\	a-	>	2G\	por-	.	2c\	a-	.	(4gg\	a-	.
.	.	.	.	.	.	.	.	.	4ee\)	.	.
4E\	-ve,	]	4G\	-ta	.	4c\	-ve	.	4cc\	-ve	.
4r	.	.	4r	.	.	4r	.	.	4r	.	.
!	!	!	!LO:LB:g=original	!	!	!LO:LB:g=original	!	!	!	!	!
=11	=11	=11	=11	=11	=11	=11	=11	=11	=11	=11	=11
!	!	!LO:DY:a	!	!	!	!	!	!LO:DY:a	!	!	!LO:DY:a
4.BB/	ga-	<	4.G\	ga-	.	4.d\	ga-	<	4.ff\	ga-	<
!	!	!	!	!	!LO:DY:a	!	!	!	!	!	!
8BB/	-bri-	.	8G\	-bri-	<	8c#X\	-bri-	.	8ee\	-bri-	.
4BB/	-e-	[	4G\	-e-	.	(8d\L	-e-	[	(8ff\L	-e-	[
.	.	.	.	.	.	8f\J	.	.	8aa\J)	.	.
!	!	!LO:DY:a	!	!	!	!	!	!	!	!	!
4BB/	-lis	>	4G\	-lis	[	8e\L	-lis	.	(8gg\L	-lis	.
.	.	]]	.	.	.	8d\J	.	.	8ff\J)	.	.
=12	=12	=12	=12	=12	=12	=12	=12	=12	=12	=12	=12
!	!	!	!	!	!LO:DY:a	!	!	!LO:DY:a	!	!	!LO:DY:a
2C/	o-	.	2G\	o-	>	2d\)	o-	>	2ff\	o-	>
4C/	-re,	.	4G\	-re,	]	4c\	-re	]	4ee\	-re,	]
!	!	!LO:DY:a	!	!	!LO:DY:a	!	!	!	!	!	!
4r	.	p	4r	.	p	4r	.	.	4r	.	p
=13	=13	=13	=13	=13	=13	=13	=13	=13	=13	=13	=13
!	!	!	!	!	!	!	!	!LO:DY:a	!	!	!
4.A\	fun-	.	4.A\	fun-	.	4.c\	fun-	<	4.ff\	fun-	.
!	!	!LO:DY:a	!	!	!LO:DY:a	!	!	!	!	!	!
8A\	-da	<	8A\	-da	<	8c\	-da	.	8ff\	-da	.
4.G\	nos	.	4.G\	nos	.	4.c\	nos	.	4.ee\	nos	.
8G\	in	[	8G\	in	[	8c\	in	[	8ee\	in	.
!LO:LB:g=original	!	!	!	!	!	!	!	!	!LO:LB:g=original	!	!
=14	=14	=14	=14	=14	=14	=14	=14	=14	=14	=14	=14
!	!	!LO:DY:a	!	!	!LO:DY:a	!LO:TX:t=P:problem=diminuendolike accent	!	!	!LO:TX:t=P:problem=diminuendolike accent	!	!
2F\	pa-	>	2A\	pa-	>	2c\	pa-	.	2dd\	pa-	.
4F#X\	-ce,	]	4A\	-ce	]	4c\	-ce	.	4dd#X\	-ce	.
4r	.	.	4r	.	.	4r	.	.	4r	.	.
!	!	!	!LO:LB:g=original	!	!	!LO:LB:g=original	!	!	!	!	!
=15	=15	=15	=15	=15	=15	=15	=15	=15	=15	=15	=15
!	!	!	!	!	!	!	!	!LO:DY:a	!	!	!
4G\	mu-	.	4G\	mu-	.	4c\	mu-	<	4ee\	mu-	.
!	!	!	!	!	!	!	!	!	!	!	!LO:DY:a
.	.	.	.	.	.	.	.	.	.	.	<
!	!	!LO:DY:a	!	!	!LO:DY:a	!	!	!	!	!	!
4GG/	-tans	<	4G\	-tans	<	4c\	-tans	.	4ee\	-tans	.
4C/	no-	.	4G\	no-	.	4c\	no-	.	4ee\	no-	.
4E/	-men	[[	4G\	-men	[	4c\	-men	[	4ee\	-men	[
=16	=16	=16	=16	=16	=16	=16	=16	=16	=16	=16	=16
(2G\	E-	.	(2G\	E-	.	(2c\	E-	.	(2dd\	E-	.
!	!	!LO:DY:a	!	!	!LO:DY:a	!	!	!LO:DY:a	!	!	!LO:DY:a
2GG/)	.	>	2F\)	.	>	2B\)	.	>	2gg\)	.	>
=17:|!	=17:|!	=17:|!	=17:|!	=17:|!	=17:|!	=17:|!	=17:|!	=17:|!	=17:|!	=17:|!	=17:|!
4C/	-ve	]	4E\	-ve,	]	4G/	-ve	]	4cc\	-ve,	]
4r	.	.	4r	.	.	4r	.	.	4r	.	.
!	!	!LO:DY:a	!	!	!	!	!	!	!	!	!LO:DY:a
4C/	mu-	>	4A\	mu-	.	4c\	mu-	.	4ff\	mu-	>
!	!	!	!	!	!	!	!	!LO:DY:a	!	!	!
.	.	.	.	.	.	.	.	>	.	.	.
!	!	!	!	!	!LO:DY:a	!	!	!	!	!	!
4C/	-tans	]]	4G\	-tans	>	4c\	-tans	.	4ee\	-tans	]
!LO:LB:g=original	!	!	!	!	!	!	!	!	!LO:LB:g=original	!	!
=18	=18	=18	=18	=18	=18	=18	=18	=18	=18	=18	=18
!	!	!	!	!	!	!	!	!	!	!	!LO:DY:a
4C/	no-	.	4F#X\	no-	]	4c\	no-	]	4dd#X\	no-	>
!	!	!LO:DY:a	!	!	!	!	!	!	!	!	!
4C/	-men	>	4G\	-men	.	4c\	-men	.	4ee\	-men	.
!	!	!	!	!	!	!	!	!LO:DY:a	!	!	!
2C/	E-	.	(4E\	E-	.	(4G/	E-	>	2cc\	E-	]]
.	.	]]	4Fn\)	.	.	4A/)	.	.	.	.	.
!	!	!	!LO:LB:g=original	!	!	!	!	!	!	!	!
=19	=19	=19	=19	=19	=19	=19	=19	=19	=19	=19	=19
!	!	!	!LO:TX:b:i:t=Wpisałem K. Molęcki	!	!	!	!	!	!	!	!
!	!	!	!LO:TX:t=P:problem=diminuendolike accent	!	!	!	!	!	!	!	!
4C/	-ve.	.	4E\	-ve.	.	4G/	-ve.	]	4cc\	-ve.	.
4r	.	.	4r	.	.	4r	.	.	4r	.	.
2r	.	.	2r	.	.	2r	.	.	2r	.	.
!LO:LB:g=original	!	!	!LO:LB:g=original	!	!	!LO:LB:g=original	!	!	!LO:LB:g=original	!	!
==	==	==	==	==	==	==	==	==	==	==	==
*-	*-	*-	*-	*-	*-	*-	*-	*-	*-	*-	*-
!!!system-decoration: [(s1,s2,s3,s4)]
!!!RDF**kern: < = below
!!!RDF**kern: > = above
!!!ENC: Marta Chmielewska
!!!END: 2021-03-26
!!!ENC: Mateusz Solarz
!!!END: 2021-03-05
!!!YEC: Copyright 2022 Narodowy Instytut Fryderyka Chopina (https://polishscores.org)
!!!YEM: License CC-BY-4.0 (https://creativecommons.org/licenses/by/4.0)
